X:1
T:Let Us All Be Unhappy Together. Roose.0521
T:Let Us All Be Unhappy Together. Roose.0521
T:Charles Dibdin 1790
C:Charles Dibdin 1790
L:1/8
Q:3/8=90
M:6/8
K:F
V:1 treble 
V:1
 c/B/ | AAc FFG | A2 z z2 G | A>Bc c>BA | A2 G z2 c/B/ | AAc FFG | A2 z z2 G | A>Bc BAG | %8
"^8" F3 F2 c | dBB BBd | B2 z z2 d | cAA AAc | A3 A2 A | BGG GGB | G2 z z2 A/B/ | A>GF FGA | %16
"^16" F3 F2 G/A/ | B>AG GAB | G3 G2 A/B/ | c>BA ABc | d3 !fermata!f2 f | fff ccc | A3 c3 | %23
 fff ccc |"^24" A3 c2 c/B/ | Acf fcA |{c} B2 z z2 c/B/ | BAG dcB | A3 F2 |"^Sym" c | z dd z ee | %31
 z ff z gg | afc dcB |"^32" A3 F3 |] %34

